X:1
T:Where Is Thy Refuge?
T:Silas Jones Vail
T:Where Is Thy Refuge?
T:Public Domain
T:Public Domain
T:Public Domain
C:Silas Jones Vail
Z:Public Domain
%%score ( 1 2 ) 3
L:1/8
M:6/8
K:A
V:1 treble 
V:2 treble 
V:3 bass 
V:1
 E | E>FE A>GF | F E4 A | G>GG BAG | A3- A2 E | E>FE A>GF | F E4 A | G>GG BAG | A3- A2 A | %9
w: 1.~Say,|where is thy ref- uge, my|bro- ther, And|what is thy pros- pect to-|day? * Why|toil for the wealth that will|per- ish, The|trea- sures that rust and de-|cay? * Oh,|
w: 2.~The|Mas- ter is call- ing thee,|bro- ther, In|tones of com- pas- sion and|love, * To|feel that sweet rap- ture of|par- don, And|lay up thy trea- sure a-|bove; * Oh,|
w: 3.~The|sum- mer is wan- ing, my|bro- ther, Re-|pent, ere the sea- son is|past; * God’s|good- ness to thee is ex-|tend- ed, As|long as the day- beam shall|last; * Then|
 B>BB Bcd | d c4 B | A>AA ABc | B3- B2 E | E>FE A>GF | F E4 A | G>GG BAG | A3- A2 ||"^Refrain" A | %18
w: think of thy soul, that for-|ev- er Must|live on e- ter- ni- ty’s|shore, * When|thou in the dust art for-|got- ten, When|plea- sure can charm thee no|more. *||
w: kneel at the cross where He|suf- fered, To|ran- som thy soul from the|grave, * The|arm of His mer- cy will|hold Thee, The|arm that is might- y to|save. *||
w: slight not the warn- ing re-|peat- ed With|all the bright mo- ments that|roll, * Nor|say, when the har- vest is|end- ed, That|no one hath cared for thy|soul. *||
 [GB]>[GB][GB] [Ac]<[Ac][Ac] | [Bd][Ac][GB] [Ac]2 E | [DF]>[DF][DF] [FA]2 [EG]/[DF]/ | %21
w: |||
w: |||
w: |||
 [DF][CE][CE] [CE]2 [EA] | [EG]>[EG][EG] [EG][EF][EG] | [EB][EA][EG] [EA]2 |] %24
w: |||
w: |||
w: |||
V:2
 x | x6 | x6 | x6 | x6 | x6 | x6 | x6 | x6 | x6 | x6 | x6 | x6 | x6 | x6 | x6 | x5 || A | x6 | %19
 x5 E | x6 | x6 | x6 | x5 |] %24
V:3
 z | z6 | z6 | z6 | z6 | z6 | z6 | z6 | z6 | z6 | z6 | z6 | z6 | z6 | z6 | z6 | z3 z2 || [A,C] | %18
w: |||||||||||||||||’Twill|
 [E,E]>[E,E][E,E] [A,E]<[A,E][A,E] | [E,E][E,E][E,E] [A,E]2 [D,A,] | %20
w: pro- fit thee no- thing, but|fear- ful the cost, To|
 [D,A,]>[D,A,][D,A,] [D,A,]2 [D,A,]/[D,A,]/ | [A,,A,][A,,A,][A,,A,] [A,,A,]2 [A,C] | %22
w: gain the whole world if thy|soul should be lost! To|
 [E,B,]>[E,B,][E,B,] [E,B,][E,B,][E,B,] | [E,D][E,C][E,B,] [A,,C]2 |] %24
w: gain the whole world if thy|soul should be lost!|

